icons/tableau-light.svg

<svg width="256" height="256" viewBox="0 0 256 256" fill="none" xmlns="http://www.w3.org/2000/svg">
<g clip-path="url(#clip0_163_249)">
<path d="M196 0H60C26.8629 0 0 26.8629 0 60V196C0 229.137 26.8629 256 60 256H196C229.137 256 256 229.137 256 196V60C256 26.8629 229.137 0 196 0Z" fill="#F4F2ED"/>
<path d="M125.202 49.9704V57.9734H110.888V63.1786H125.202V79.1194H130.798V63.1786H145.47V57.9734H130.798V42H125.202V49.9704Z" fill="#7099A6"/>
<path d="M78.4209 70.2708V81.8848H56.7544V89.1721H78.4209V112.758H86.4564V89.1721H108.448V81.8848H86.4564V58.6567H78.4209V70.2708Z" fill="#EB912C"/>
<path d="M169.218 70.2708V81.8848H147.552V89.5299H169.218V112.758H177.579V89.5299H199.246V81.8848H177.579V58.6567H169.218V70.2708Z" fill="#59879B"/>
<path d="M123.12 109.83V122.843H99.0137V132.537H123.12V158.563H132.88V132.537H156.986V122.843H132.88V96.8169H123.12V109.83Z" fill="#E8762C"/>
<path d="M194.009 116.402V124.567H179.336V131.171H194.009V147.47H201.328V131.171H216V124.567H201.328V108.269H194.009V116.402Z" fill="#5B6591"/>
<path d="M54.3142 117.117V124.925H40V130.456H54.3142V146.071H59.9098V130.456L74.5819 129.935V124.925H59.9098V109.31H54.3142V117.117Z" fill="#7099A6"/>
<path d="M78.4209 153.879V165.493H56.7544V173.138H78.4209V196.366H86.7817V173.138H108.448V165.493H86.7817V142.265H78.4209V153.879Z" fill="#C72035"/>
<path d="M169.218 153.879V165.493H147.552V172.78H169.218V196.366H177.579V172.78H199.246V165.493H177.579V142.265H169.218V153.879Z" fill="#1F447E"/>
<path d="M124.519 183.386V191.519H109.847V198.123H124.519V214.421H131.839V198.123H146.511V191.519H131.839V175.22H124.519V183.386Z" fill="#5B6591"/>
</g>
<defs>
<clipPath id="clip0_163_249">
<rect width="256" height="256" fill="white"/>
</clipPath>
</defs>
</svg>

<svg xmlns="http://www.w3.org/2000/svg" width="256" height="256" fill="none"><g clip-path="url(#clip0_163_249)"><path fill="#F4F2ED" d="M196 0H60C26.863 0 0 26.863 0 60v136c0 33.137 26.863 60 60 60h136c33.137 0 60-26.863 60-60V60c0-33.137-26.863-60-60-60"/><path fill="#7099A6" d="M125.202 49.97v8.003h-14.314v5.206h14.314v15.94h5.596V63.18h14.672v-5.206h-14.672V42h-5.596z"/><path fill="#EB912C" d="M78.42 70.27v11.615H56.755v7.287h21.667v23.586h8.035V89.172h21.992v-7.287H86.456V58.657h-8.035z"/><path fill="#59879B" d="M169.218 70.27v11.615h-21.666v7.645h21.666v23.228h8.361V89.53h21.667v-7.645h-21.667V58.657h-8.361z"/><path fill="#E8762C" d="M123.12 109.83v13.013H99.014v9.694h24.106v26.026h9.76v-26.026h24.106v-9.694H132.88V96.817h-9.76z"/><path fill="#5B6591" d="M194.009 116.402v8.165h-14.673v6.604h14.673v16.299h7.319v-16.299H216v-6.604h-14.672v-16.298h-7.319z"/><path fill="#7099A6" d="M54.314 117.117v7.808H40v5.531h14.314v15.615h5.596v-15.615l14.672-.521v-5.01H59.91V109.31h-5.596z"/><path fill="#C72035" d="M78.42 153.879v11.614H56.755v7.645h21.667v23.228h8.36v-23.228h21.667v-7.645H86.782v-23.228H78.42z"/><path fill="#1F447E" d="M169.218 153.879v11.614h-21.666v7.287h21.666v23.586h8.361V172.78h21.667v-7.287h-21.667v-23.228h-8.361z"/><path fill="#5B6591" d="M124.519 183.386v8.133h-14.672v6.604h14.672v16.298h7.32v-16.298h14.672v-6.604h-14.672V175.22h-7.32z"/></g><defs><clipPath id="clip0_163_249"><path fill="#fff" d="M0 0h256v256H0z"/></clipPath></defs></svg>
